assets/img/moonlight.svg

<svg xmlns="http://www.w3.org/2000/svg" width="1385" height="1385" viewBox="0 0 1385 1385">
  <g fill="#FFFFFA" fill-opacity=".05" fill-rule="evenodd">
    <path d="M692.4004,1384.8 C599.1074,1384.8 508.3844,1366.434 422.7524,1330.212 C340.2624,1295.325 266.2584,1245.46 202.8014,1182.003 C139.3494,1118.553 89.4824,1044.547 54.5854,962.042 C18.3664,876.415 0.0004,785.694 0.0004,692.401 C0.0004,599.11 18.3654,508.388 54.5864,422.756 C89.4804,340.255 139.3474,266.251 202.8014,202.798 C266.2524,139.347 340.2564,89.481 422.7574,54.584 C508.3944,18.365 599.1154,-2.274e-13 692.4004,-2.274e-13 C785.6884,-2.274e-13 876.4094,18.365 962.0444,54.586 C1044.5414,89.479 1118.5454,139.344 1181.9994,202.797 C1245.4564,266.254 1295.3244,340.263 1330.2174,422.768 C1366.4354,508.389 1384.7994,599.107 1384.7994,692.401 C1384.7994,785.692 1366.4334,876.414 1330.2124,962.049 C1295.3264,1044.536 1245.4624,1118.537 1182.0064,1181.996 C1118.5484,1245.453 1044.5434,1295.321 962.0444,1330.215 C876.4114,1366.435 785.6894,1384.8 692.4004,1384.8"/>
    <path d="M692.4004,1314.8 C608.5284,1314.8 526.9804,1298.295 450.0224,1265.742 C375.8764,1234.384 309.3504,1189.557 252.2994,1132.506 C195.2534,1075.461 150.4224,1008.934 119.0554,934.774 C86.5044,857.821 70.0004,776.274 70.0004,692.401 C70.0004,608.529 86.5044,526.982 119.0554,450.025 C150.4214,375.868 195.2514,309.342 252.2974,252.296 C309.3424,195.25 375.8694,150.422 450.0274,119.055 C526.9874,86.504 608.5334,70 692.4004,70 C776.2694,70 857.8164,86.505 934.7754,119.056 C1008.9274,150.419 1075.4534,195.247 1132.5024,252.295 C1189.5534,309.347 1234.3824,375.875 1265.7474,450.034 C1298.2954,526.981 1314.7994,608.526 1314.7994,692.401 C1314.7994,776.274 1298.2944,857.821 1265.7424,934.779 C1234.3844,1008.922 1189.5584,1075.446 1132.5074,1132.5 C1075.4584,1189.549 1008.9314,1234.379 934.7754,1265.744 C857.8174,1298.295 776.2704,1314.8 692.4004,1314.8"/>
    <path d="M692.4004,1244.8 C617.9484,1244.8 545.5754,1230.155 477.2924,1201.273 C411.4884,1173.443 352.4424,1133.653 301.7964,1083.008 C251.1554,1032.368 211.3634,973.321 183.5264,907.505 C154.6434,839.225 140.0004,766.853 140.0004,692.401 C140.0004,617.949 154.6434,545.576 183.5264,477.294 C211.3624,411.482 251.1534,352.435 301.7964,301.794 C352.4344,251.154 411.4814,211.362 477.2964,183.526 C545.5804,154.645 617.9514,140 692.4004,140 C766.8514,140 839.2234,154.645 907.5064,183.526 C973.3144,211.36 1032.3614,251.151 1083.0054,301.793 C1133.6504,352.439 1173.4414,411.488 1201.2754,477.301 C1230.1554,545.573 1244.7994,617.945 1244.7994,692.401 C1244.7994,766.854 1230.1554,839.227 1201.2724,907.509 C1173.4434,973.311 1133.6524,1032.358 1083.0084,1083.004 C1032.3684,1133.645 973.3214,1173.437 907.5064,1201.274 C839.2234,1230.155 766.8514,1244.8 692.4004,1244.8"/>
    <path d="M692.4004,1174.8 C627.3664,1174.8 564.1694,1162.016 504.5614,1136.803 C447.0984,1112.5 395.5314,1077.746 351.2944,1033.51 C307.0574,989.276 272.3034,937.707 247.9964,880.237 C222.7844,820.63 210.0004,757.433 210.0004,692.401 C210.0004,627.368 222.7844,564.17 247.9964,504.563 C272.3034,447.095 307.0574,395.527 351.2924,351.291 C395.5264,307.057 447.0944,272.303 504.5644,247.996 C564.1724,222.783 627.3694,210 692.4004,210 C757.4324,210 820.6294,222.783 880.2374,247.996 C937.7044,272.302 989.2714,307.055 1033.5084,351.291 C1077.7474,395.53 1112.5004,447.1 1136.8044,504.568 C1162.0164,564.169 1174.7994,627.366 1174.7994,692.401 C1174.7994,757.434 1162.0154,820.632 1136.8024,880.238 C1112.5004,937.702 1077.7464,989.27 1033.5094,1033.508 C989.2764,1077.741 937.7084,1112.495 880.2374,1136.804 C820.6304,1162.016 757.4334,1174.8 692.4004,1174.8"/>
    <path d="M692.4004,1104.8 C636.7874,1104.8 582.7644,1093.877 531.8324,1072.333 C482.7104,1051.558 438.6204,1021.841 400.7904,984.012 C362.9604,946.183 333.2454,902.093 312.4654,852.968 C290.9224,802.036 280.0004,748.013 280.0004,692.401 C280.0004,636.787 290.9224,582.764 312.4654,531.832 C333.2444,482.707 362.9614,438.617 400.7904,400.789 C438.6184,362.961 482.7084,333.244 531.8334,312.466 C582.7654,290.924 636.7884,280 692.4004,280 C748.0124,280 802.0364,290.924 852.9684,312.467 C902.0924,333.244 946.1814,362.96 984.0114,400.789 C1021.8404,438.619 1051.5574,482.709 1072.3344,531.834 C1093.8774,582.764 1104.7994,636.787 1104.7994,692.401 C1104.7994,748.013 1093.8774,802.036 1072.3334,852.969 C1051.5574,902.091 1021.8404,946.181 984.0114,984.011 C946.1834,1021.839 902.0934,1051.555 852.9674,1072.334 C802.0364,1093.877 748.0124,1104.8 692.4004,1104.8"/>
    <path d="M692.4004,1034.8 C646.2084,1034.8 601.3594,1025.737 559.1014,1007.863 C518.3204,990.615 481.7104,965.937 450.2874,934.514 C418.8644,903.091 394.1854,866.481 376.9364,825.699 C359.0624,783.442 350.0004,738.593 350.0004,692.401 C350.0004,646.207 359.0624,601.36 376.9364,559.102 C394.1854,518.321 418.8644,481.709 450.2874,450.287 C481.7104,418.863 518.3204,394.186 559.1014,376.936 C601.3594,359.063 646.2074,350 692.4004,350 C738.5934,350 783.4414,359.063 825.6994,376.937 C866.4804,394.186 903.0904,418.863 934.5134,450.287 C965.9364,481.709 990.6154,518.321 1007.8634,559.102 C1025.7374,601.36 1034.7994,646.207 1034.7994,692.401 C1034.7994,738.593 1025.7374,783.442 1007.8634,825.699 C990.6154,866.481 965.9364,903.091 934.5134,934.514 C903.0904,965.937 866.4804,990.614 825.6994,1007.863 C783.4414,1025.737 738.5934,1034.8 692.4004,1034.8"/>
  </g>
</svg>

<svg xmlns="http://www.w3.org/2000/svg" width="1385" height="1385" fill="#fffffa" fill-opacity=".05" fill-rule="evenodd" xmlns:v="https://vecta.io/nano"><path d="M692.4 1384.8c-93.293 0-184.016-18.366-269.648-54.588-82.5-34.887-156.494-84.752-219.95-148.21-63.452-63.45-113.32-137.456-148.216-219.96C18.366 876.415 0 785.694 0 692.4s18.365-184.013 54.586-269.645c34.894-82.5 84.76-156.505 148.215-219.958S340.256 89.48 422.757 54.584C508.394 18.365 599.115 0 692.4 0s184.01 18.365 269.644 54.586c82.497 34.893 156.5 84.758 219.955 148.21s113.325 137.466 148.218 219.97c36.218 85.62 54.582 176.34 54.582 269.633s-18.366 184.013-54.587 269.648c-34.886 82.487-84.75 156.488-148.206 219.947s-137.463 113.325-219.962 148.22C876.41 1366.435 785.69 1384.8 692.4 1384.8"/><path d="M692.4 1314.8c-83.872 0-165.42-16.505-242.378-49.058-74.146-31.358-140.672-76.185-197.723-133.236-57.046-57.045-101.877-123.572-133.244-197.732C86.504 857.82 70 776.274 70 692.4s16.504-165.42 49.055-242.376c31.366-74.157 76.196-140.683 133.242-197.73s123.572-101.874 197.73-133.24C526.987 86.504 608.533 70 692.4 70s165.416 16.505 242.375 49.056c74.152 31.363 140.678 76.19 197.727 133.24s101.88 123.58 133.245 197.74c32.548 76.947 49.052 158.492 49.052 242.367s-16.505 165.42-49.057 242.378c-31.358 74.143-76.184 140.667-133.235 197.72-57.05 57.05-123.576 101.88-197.732 133.244-76.958 32.55-158.505 49.056-242.375 49.056"/><path d="M692.4 1244.8c-74.452 0-146.825-14.645-215.108-43.527-65.804-27.83-124.85-67.62-175.496-118.265s-90.433-109.687-118.27-175.503C154.643 839.225 140 766.853 140 692.4s14.643-146.825 43.526-215.107c27.836-65.812 67.627-124.86 118.27-175.5 50.638-50.64 109.685-90.432 175.5-118.268C545.58 154.645 617.95 140 692.4 140s146.823 14.645 215.106 43.526c65.808 27.834 124.855 67.625 175.5 118.267s90.436 109.695 118.27 175.508c28.88 68.272 43.524 140.644 43.524 215.1s-14.644 146.826-43.527 215.108c-27.83 65.802-67.62 124.85-118.264 175.495s-109.687 90.433-175.502 118.27c-68.283 28.88-140.655 43.526-215.106 43.526"/><path d="M692.4 1174.8c-65.034 0-128.23-12.784-187.84-37.997-57.463-24.303-109.03-59.057-153.267-103.293s-78.99-95.803-103.298-153.273C222.784 820.63 210 757.433 210 692.4s12.784-128.23 37.996-187.838c24.307-57.468 59.06-109.036 103.296-153.272s95.802-78.988 153.272-103.295C564.172 222.783 627.37 210 692.4 210s128.23 12.783 187.837 37.996c57.467 24.306 109.034 59.06 153.27 103.295s78.992 95.81 103.296 153.277c25.212 59.6 37.995 122.798 37.995 187.833s-12.784 128.23-37.997 187.837c-24.302 57.464-59.056 109.032-103.293 153.27-44.233 44.233-95.8 78.987-153.272 103.296-59.607 25.212-122.804 37.996-187.837 37.996"/><path d="M692.4 1104.8c-55.613 0-109.636-10.923-160.568-32.467-49.122-20.775-93.212-50.492-131.042-88.32s-67.545-81.92-88.325-131.044C290.922 802.036 280 748.013 280 692.4s10.922-109.637 32.465-160.57c20.78-49.125 50.496-93.215 88.325-131.043s81.918-67.545 131.043-88.323C582.765 290.924 636.788 280 692.4 280s109.636 10.924 160.568 32.467c49.124 20.777 93.213 50.493 131.043 88.322s67.546 81.92 88.323 131.045c21.543 50.93 32.465 104.953 32.465 160.567s-10.922 109.635-32.466 160.568c-20.776 49.122-50.493 93.212-88.322 131.042s-81.918 67.544-131.044 88.323c-50.93 21.543-104.955 32.466-160.567 32.466"/><path d="M692.4 1034.8c-46.192 0-91.04-9.063-133.3-26.937-40.78-17.248-77.39-41.926-108.814-73.35s-56.102-68.033-73.35-108.815C359.062 783.442 350 738.593 350 692.4s9.062-91.04 26.936-133.3c17.25-40.78 41.928-77.393 73.35-108.815s68.033-56.1 108.814-73.35C601.36 359.063 646.207 350 692.4 350s91.04 9.063 133.3 26.937c40.78 17.25 77.39 41.926 108.814 73.35s56.102 68.034 73.35 108.815c17.874 42.258 26.936 87.105 26.936 133.3s-9.062 91.04-26.936 133.298c-17.248 40.782-41.927 77.392-73.35 108.815s-68.033 56.1-108.814 73.35c-42.258 17.874-87.106 26.937-133.3 26.937"/></svg>
